projects/seb-pictograms/svg/regular/69-Picto-Regular_black.svg

<svg xmlns="http://www.w3.org/2000/svg" viewBox="0 0 170 170"><path d="M100.7 20.7H69.3a64.3 64.3 0 000 128.5h31.5a64.3 64.3 0 000-128.5zm-27.1 6a64.5 64.5 0 00-16 10.7H35.7a57.9 57.9 0 0133.6-10.7zM28.5 43.4h23.3a64.4 64.4 0 00-10.1 16.3H16.8a58.5 58.5 0 0111.7-16.3zM36.6 82H11.1a57.9 57.9 0 013.2-16.3h25.2A63.9 63.9 0 0036.6 82zm32.7 61.3A58.3 58.3 0 0111.1 88h25.5a64.4 64.4 0 0037.1 55.3zm31.5 0A58.3 58.3 0 11159 85a58.3 58.3 0 01-58.3 58.3z"/><path d="M100.7 36.8v6a42.2 42.2 0 110 84.5v6a48.2 48.2 0 100-96.5z"/></svg>

<svg id="PIKTO_REGULAR" xmlns="http://www.w3.org/2000/svg" viewBox="0 0 170 170"><title>regular_black</title><path d="M100.7,20.7H69.3a64.3,64.3,0,0,0,0,128.5h31.5a64.3,64.3,0,0,0,0-128.5Zm-27.1,6A64.5,64.5,0,0,0,57.6,37.4H35.7A57.9,57.9,0,0,1,69.3,26.7ZM28.5,43.4H51.8A64.4,64.4,0,0,0,41.7,59.7H16.8A58.5,58.5,0,0,1,28.5,43.4ZM36.6,82H11.1a57.9,57.9,0,0,1,3.2-16.3H39.5A63.9,63.9,0,0,0,36.6,82Zm32.7,61.3A58.3,58.3,0,0,1,11.1,88H36.6a64.4,64.4,0,0,0,37.1,55.3Zm31.5,0A58.3,58.3,0,1,1,159,85,58.3,58.3,0,0,1,100.7,143.3Z"/><path d="M100.7,36.8v6a42.2,42.2,0,1,1,0,84.5v6a48.2,48.2,0,1,0,0-96.5Z"/></svg>
